CKC/img/icons/logo-def.svg

<svg width="58" height="16" viewBox="0 0 58 16" fill="none" xmlns="http://www.w3.org/2000/svg">
<path d="M2.885 12.69H8.87V15H0.47V0.299999H2.885V12.69ZM22.004 13.068C20.534 14.538 18.735 15.273 16.607 15.273C14.479 15.273 12.673 14.538 11.189 13.068C9.71902 11.584 8.98402 9.778 8.98402 7.65C8.98402 5.522 9.71902 3.723 11.189 2.253C12.673 0.768999 14.479 0.0269988 16.607 0.0269988C18.735 0.0269988 20.534 0.768999 22.004 2.253C23.488 3.723 24.23 5.522 24.23 7.65C24.23 9.778 23.488 11.584 22.004 13.068ZM12.89 11.43C13.898 12.424 15.137 12.921 16.607 12.921C18.077 12.921 19.309 12.424 20.303 11.43C21.311 10.422 21.815 9.162 21.815 7.65C21.815 6.138 21.311 4.885 20.303 3.891C19.309 2.883 18.077 2.379 16.607 2.379C15.137 2.379 13.898 2.883 12.89 3.891C11.896 4.885 11.399 6.138 11.399 7.65C11.399 9.162 11.896 10.422 12.89 11.43ZM40.7339 7.398V8.406C40.7339 10.422 40.0689 12.074 38.7389 13.362C37.4089 14.636 35.6729 15.273 33.5309 15.273C31.2629 15.273 29.3869 14.538 27.9029 13.068C26.4329 11.598 25.6979 9.792 25.6979 7.65C25.6979 5.522 26.4329 3.723 27.9029 2.253C29.3869 0.768999 31.2209 0.0269988 33.4049 0.0269988C34.7769 0.0269988 36.0299 0.341999 37.1639 0.971999C38.2979 1.602 39.1799 2.449 39.8099 3.513L37.7309 4.71C37.3389 4.01 36.7579 3.45 35.9879 3.03C35.2179 2.596 34.3569 2.379 33.4049 2.379C31.8649 2.379 30.5979 2.883 29.6039 3.891C28.6099 4.899 28.1129 6.159 28.1129 7.671C28.1129 9.183 28.6099 10.436 29.6039 11.43C30.6119 12.424 31.9279 12.921 33.5519 12.921C34.8539 12.921 35.9109 12.62 36.7229 12.018C37.5489 11.402 38.0739 10.583 38.2979 9.561H33.3839V7.398H40.7339ZM55.2267 13.068C53.7567 14.538 51.9577 15.273 49.8297 15.273C47.7017 15.273 45.8957 14.538 44.4117 13.068C42.9417 11.584 42.2067 9.778 42.2067 7.65C42.2067 5.522 42.9417 3.723 44.4117 2.253C45.8957 0.768999 47.7017 0.0269988 49.8297 0.0269988C51.9577 0.0269988 53.7567 0.768999 55.2267 2.253C56.7107 3.723 57.4527 5.522 57.4527 7.65C57.4527 9.778 56.7107 11.584 55.2267 13.068ZM46.1127 11.43C47.1207 12.424 48.3597 12.921 49.8297 12.921C51.2997 12.921 52.5317 12.424 53.5257 11.43C54.5337 10.422 55.0377 9.162 55.0377 7.65C55.0377 6.138 54.5337 4.885 53.5257 3.891C52.5317 2.883 51.2997 2.379 49.8297 2.379C48.3597 2.379 47.1207 2.883 46.1127 3.891C45.1187 4.885 44.6217 6.138 44.6217 7.65C44.6217 9.162 45.1187 10.422 46.1127 11.43Z" fill="black"/>
</svg>

<svg width="58" height="16" fill="none" xmlns="http://www.w3.org/2000/svg"><path d="M2.885 12.69H8.87V15H.47V.3h2.415v12.39zm19.119.378c-1.47 1.47-3.269 2.205-5.397 2.205s-3.934-.735-5.418-2.205c-1.47-1.484-2.205-3.29-2.205-5.418s.735-3.927 2.205-5.397C12.673.769 14.479.027 16.607.027s3.927.742 5.397 2.226c1.484 1.47 2.226 3.269 2.226 5.397s-.742 3.934-2.226 5.418zM12.89 11.43c1.008.994 2.247 1.491 3.717 1.491 1.47 0 2.702-.497 3.696-1.491 1.008-1.008 1.512-2.268 1.512-3.78s-.504-2.765-1.512-3.759c-.994-1.008-2.226-1.512-3.696-1.512-1.47 0-2.709.504-3.717 1.512-.994.994-1.491 2.247-1.491 3.759s.497 2.772 1.491 3.78zm27.844-4.032v1.008c0 2.016-.665 3.668-1.995 4.956-1.33 1.274-3.066 1.911-5.208 1.911-2.268 0-4.144-.735-5.628-2.205-1.47-1.47-2.205-3.276-2.205-5.418 0-2.128.735-3.927 2.205-5.397C29.387.769 31.22.027 33.405.027c1.372 0 2.625.315 3.759.945 1.134.63 2.016 1.477 2.646 2.541L37.73 4.71c-.391-.7-.972-1.26-1.742-1.68-.77-.434-1.631-.651-2.583-.651-1.54 0-2.807.504-3.801 1.512-.994 1.008-1.491 2.268-1.491 3.78s.497 2.765 1.49 3.759c1.009.994 2.325 1.491 3.949 1.491 1.302 0 2.359-.301 3.17-.903.827-.616 1.352-1.435 1.576-2.457h-4.914V7.398h7.35zm14.493 5.67c-1.47 1.47-3.27 2.205-5.397 2.205-2.128 0-3.934-.735-5.418-2.205-1.47-1.484-2.205-3.29-2.205-5.418s.735-3.927 2.205-5.397C45.896.769 47.702.027 49.83.027s3.927.742 5.397 2.226c1.484 1.47 2.226 3.269 2.226 5.397s-.742 3.934-2.226 5.418zm-9.114-1.638c1.008.994 2.247 1.491 3.717 1.491 1.47 0 2.702-.497 3.696-1.491 1.008-1.008 1.512-2.268 1.512-3.78s-.504-2.765-1.512-3.759c-.994-1.008-2.226-1.512-3.696-1.512-1.47 0-2.71.504-3.717 1.512-.994.994-1.491 2.247-1.491 3.759s.497 2.772 1.49 3.78z" fill="#000"/></svg>
